!!!ONB: MCCC : ILB0322_01 : Extracted Monophonic Melody
!!!COM: Beethoven, Ludwig van
!!!OPR: Violin Sonata No.1 in D major
!!!OMV: 1
!!!SCT: Op.12 No.1
!!!ODT: 1797///
**kern
*staff1
=1
*clefG2
*k[f#c#g#]
*A:
*M4/4
2.f#
4r
=2
16dd
8.ff#
8r
16r
16dd
16ff#
8.aa
8r
16r
16aa
=3
16ff#
8.dd
4r
4r
8r
16r
16ff#
=4
16dd
8.a
8r
16r
16dd
16a
8.f#
8r
16r
16a
=5
16f#
8.d
8r
8a
4aa
4aa
=6
2aa
4aa
4ff#
=7
16dd
8.cc#
8r
8a
4gg
4gg
=8
2gg
4gg
4ee
=9
16cc#
8.dd
4r
2dd[
=10
2dd]
2dd
=11
2.dd[
8.dd]
16b
=12
8b
8b
8a
16g
16f#
8f#
8f#
8e
16d
16c#
=13
8d
8f#
8a
8a
8g
8f#
8e
8d
=14
8d
8e
8f#
8g
8a
8b
8cc#[
16cc#]
16dd
=15
8dd
8cc#
8ee
8ee
8dd
8cc#
8b
8a
=16
8a
8b
8cc#
8dd
8ee
8ff#
8gg[
16gg]
16ee
=17
8ee
8ff#
8aa
8aa
8gg
8ff#
8ee
8dd
=18
8dd
8ee
8ff#
8gg
8aa
8bb
8ccc[
16ccc]
16ccc#[
=19
16ccc#]
16ddd
8ddd[
4ddd]
8ddd
8ccc#
8ddd
16eee
16ddd
=20
8ddd
8ddd
8eee
8eee
8ddd
8ddd
8eee[
16eee]
16ddd
=21
4ddd
4ccc#
16r
16A
16g
16f#
16g
16a
16g
16f#
=22
4g
4gg
2r
=23
2r
16r
16f#
16dd
16cc#
16dd
16ee
16dd
16cc#
=24
4dd
4ff#
2r
=25
2r
16r
16A
16g
16f#
16g
16a
16g
16f#
=26
4g
8gg
16ff#
16ee
16dd
16cc#
16b
16a
16g
16f#
16e
16d
=27
4c#
2.d
=28
4a
4ff#[
8.ff#]
16ee#
16ff#
16gg
16ff#
16ee#
=29
4ff#
4ddd
2r
=30
2ddd[
8.ddd]
16ccc#
16ddd
16eee
16ddd
16ccc#
=31
4ddd
4ee
2r
=32
4.ee
8ff#
8gg#
8aa
8bb[
16bb]
16ccc#
=33
4ddd
4ddd[
8.ddd]
16ccc#
16bb
16aa
16gg#
16ff#
=34
16ee
8dd
16cc#
16b
16a
16g#
16f#
16e
8.d
16r
8.d
=35
16r
8.c#
16r
8.cc#
4r
4cc#[
=36
16cc#]
8.dd#
16r
8.dd#
4r
4dd#[
=37
16dd#]
8.ee
4ddd[
8.ddd]
16ccc#
16bb
16aa
16gg#
16ff#
=38
16ee
8dd
16cc#
16b
16a
16g#
16f#
16e
8.d
16r
8.d
=39
1c#
=40
4d#
2.d#[
=41
16d#]
8e
16f#
16g#
16a
16b
16cc#
16dd#
8ee
16ff#
16gg#
16aa
16bb
16ccc#
=42
4ddd#
4eee
2r
=43
1r
=44
1r
=45
1r
=46
2r
4r
8r
8d
=47
4ff#[
8.ff#]
16dd
8ff#
8ff#
8ee
16dd
16cc#
=48
8ee
8ee
8dd
16cc#
16b
8dd
8dd
8cc#
16b
16a
=49
8cc#
8cc#
8b
8a
8g#
8f#
8f#[
16f#]
16g#
=50
4b
4b[
4b]
4r
=51
4r
4aa[
16aa]
8.ff#
4gg#[
=52
16gg#]
8.ee#
4ff#[
16ff#]
8.dd#
4ee[
=53
16ee]
8.cc#
4r
4dd[
16dd]
8.a#
=54
16r
8.b
16r
8.f#
16r
8.B
16r
16f#
8b
=55
8dd
4.ff#
16dd
16ff#
8ee
16dd
16cc#
16.b#
32cc#[
=56
16cc#]
16ee
8dd
16cc#
16b
8a#
16b
16dd
8cc#
16b
16a
16.g#
32a[
=57
16a]
16cc#
8b
16a
16g#
8f#
16e
16d
8f#
16e
16d
16.c#
32B
=58
4B
4A
2r
=59
2r
2a
=60
4a
2.aa[
=61
4aa]
64bb
64aa
64gg#
64aa
8bb
16aa
16r
8aa
16gg
16r
8ff#
16gg
=62
2ee#
4ff#
4r
=63
2r
2ee
=64
4ee
2eee[
16eee]
16eee
16ddd
16ccc#
=65
16bb
8.ccc#
4r
2r
=66
4ee
2eee[
16eee]
16eee
16ddd
16ccc
=67
16bb
8.ccc
4r
2r
=68
4cc
2ccc[
16ccc]
16ccc
16aa#
16aa
=69
16gg
8.aa
4r
2r
=70
4c
2cc[
16cc]
16cc
16a#
16a
=71
16g
8.a
4r
4r
4A[
=72
16A]
8.d
4r
4r
4d[
=73
16d]
8.G
4r
4r
4c[
=74
16c]
8.cc
16r
8.a#
16r
8.a
16r
8.g
=75
16r
8e#
16ccc
16r
8aa#
16aa
4gg[
4gg]
=76
8r
16r
16ee#
16r
8ee
16dd
4cc[
4cc]
=77
8r
16r
16dd
16r
8cc
16b
4a[
4a]
=78
1r
=79
4r
4B
4d
4g#
=80
4r
4c#
4e
4a#
=81
2r
4f#
8f#
8e
=82
8d
8c#
8a#[
16a#]
16b
8cc#
8dd
8ff#[
16ff#]
16dd
=83
4.dd
8dd
8cc#
8b
8a
8g#
=84
4f#
4ff#
8ee
8dd
8cc#
16b
16a[
=85
16a]
8.g#
16r
32aa
32gg#
16aa
32gg#
32aa[
16aa]
32aa
32gg#
16aa
32gg#
32aa[
16aa]
32aa
32gg#
16aa
32gg#
32aa[
=86
16aa]
32aa
32gg#
16aa
32gg#
32aa[
16aa]
32aa
32gg#
16aa
32gg#
32aa[
16aa]
32aa
32gg#
16aa
32gg#
32aa[
16aa]
32aa
32gg#
16aa
32gg#
32ff#
=87
4gg#
4aa
2ee
=88
2ff#
2dd
=89
2r
4e
4r
=90
2r
4e
4r
=91
2r
4r
4ee[
=92
4ee]
4a
4r
4dd
=93
1r
=94
4.aa
16gg#
16ff#
16ee
16dd#
16ee
16ff#
16ee
16dd
16cc#
16b
=95
16a
8.g#
4r
2r
=96
4.a
16g#
16f#
16e
16d#
16e
16f#
16e
16d
16c#
16B
=97
16A
8.G#
4dd[
8dd]
16cc#
16b
16a
16g#
16f#
16e
=98
16d
16c#
16d
16e
16f#
16g#
16a
16b
16cc#
16dd
16ee
16ff#
16gg#
16aa
16bb
16ccc#
=99
16ddd
8.eee
16r
8.eee#
16r
8.fff#
16r
8.aaa
=100
2r
4dd
4r
=101
8e
8aa
4r
2r
=102
1f#
=103
16a
16dd
8ff#
4r
16dd
16ff#
8aa
4r
=104
16aa
16ff#
8dd
4r
2r
=105
16ff#
16dd
8a
4r
16dd
16a
8f#
4r
=106
16a
16f#
8d
8r
8a
4aa
4aa
=107
2aa
4aa
4ff#[
=108
16ff#]
16dd
8cc#
8r
8a
4gg
4gg
=109
2gg
4gg
4ee[
=110
16ee]
16cc#
8dd
4r
2dd[
=111
2dd]
2dd
=112
2.dd[
8dd]
8cc#
=113
8b
8b
8a
8g
8f#
8f#
8e
8d
=114
8c#
8d
8f#
8a
8g
8f#
8e
8d
=115
8c#
8d
8e
8f#
8g
8a
8b
8cc#
=116
8dd
8a
8cc#
8ee
8dd
8cc#
8b
8a
=117
8g#
8a
8b
8cc#
8dd
8ee
8ff#
8gg
=118
8ee
8dd
8ff#
8aa
8gg
8ff#
8ee
8dd
=119
8cc#
8dd
8ee
8ff#
8gg
8aa
8bb
8ccc
=120
8ccc#
8ddd
8ddd
8ccc#
8ddd
8ccc#
8ddd
8eee
=121
8ddd
8ccc#
8ddd
8eee
8ddd
8ccc#
8ddd
8eee
=122
4ddd
4ccc#
8r
16A
16g
16f#
16g
16a
16g
=123
16f#
8.g
4gg
2r
=124
2r
8r
16f#
16dd
16cc#
16dd
16ee
16dd
=125
16cc#
8.dd
4ff#
2r
=126
2r
8r
16A
16g
16f#
16g
16a
16g
=127
16f#
8.g
8.gg
16ff#
16ee
16dd
16cc#
16b
16a
16g
16f#
16e
=128
16d
8.c#
2.d
=129
16r
8.a
2ff#
16ee#
16ff#
16gg
16ff#
=130
16ee#
8.ff#
4ddd
2r
=131
2.ddd
16ccc#
16ddd
16eee
16ddd
=132
16ccc#
8.ddd
4ee
2r
=133
8r
4.ee
8ff#
8gg#
8aa
8bb
=134
4ccc#
2ddd
16ccc#
16bb
16aa
16gg#
=135
16ff#
16ee
8dd
16cc#
16b
16a
16g#
16f#
16e
8d
8r
8d
=136
8r
8c#
8r
8cc#
4r
4cc#[
=137
8cc#]
8dd#
8r
8dd#
4r
4dd#[
=138
8dd#]
8ee
8r
8ddd[
4ddd]
16ccc#
16bb
16aa
16gg#
=139
16ff#
16ee
8dd
16cc#
16b
16a
16g#
16f#
16e
8d
8r
8d
=140
1c#
=141
4d#
2.d#[
=142
8d#]
8e
16f#
16g#
16a
16b
16cc#
16dd#
8ee
16ff#
16gg#
16aa
16bb
=143
16ccc#
8.ddd#
4eee
2r
=144
1r
=145
1r
=146
1r
=147
1r
=148
8d
4.ff#
8dd
8ff#
8ee
8dd
=149
8cc#
8ee
8dd
8cc#
8b
8dd
8cc#
8b
=150
8a
8cc#
8b
8a
8g#
8f#
8e
8f#
=151
4g#
4b[
8b]
4.a
=152
2r
8aa
8ff#
4gg#[
=153
8gg#]
8ee#
4r
8ff#
8dd#
4ee[
=154
8ee]
8cc#
4r
4.dd
8a#
=155
8r
8b
8r
8f#
8r
8B
8r
16f#
16b
=156
8dd
4.ff#
8dd
8ff#
32ee
16.dd
24cc#
24r
24b#
=157
8cc#
8ee
32dd
16.cc#
24b
24r
24a#
8b
8dd
32cc#
16.b
24a
24r
24g#
=158
8a
8cc#
32b
16.a
24g#
24r
24f#
8e
24d
24r
24f#
32r
16.e
24d
24r
24c#
=159
4B
4A
2r
=160
2r
2a[
=161
16a]
8.a
2.aa
=162
4aa[
16aa]
64bb
64aa
64gg#
64aa
8bb
8aa
8aa
8gg
8ff#
=163
4gg
4ee#[
8ee#]
4.ff#
=164
2r
2ee[
=165
16ee]
8.ee
2eee[
8eee]
16eee
16ddd
=166
16ccc#
16bb
8ccc#
4r
2r
=167
16r
8.ee
2eee[
8eee]
16eee
16ddd
=168
16ccc
16bb
8ccc
4r
2r
=169
16r
8.cc
2ccc[
8ccc]
16ccc
16aa#
=170
16aa
16gg
8aa
4r
2r
=171
16r
8.c
2cc[
8cc]
16cc
16a#
=172
16a
16g
8a
4r
4r
4A[
=173
8A]
8d
4r
4r
4d[
=174
8d]
8G
4r
4r
4c[
=175
8c]
8cc
8r
8a#
8r
8a
8r
8g
=176
8r
8e#
8ccc
16aa#
16aa
4aa
8gg
8ee#[
=177
4ee#]
8ee#
16ee
16dd
4dd
8cc
8b[
=178
4b]
8dd
16cc
16b
4b
8a
8g#[
=179
4g#]
4r
2r
=180
4r
4B
4d[
8d]
8g#[
=181
4g#]
4c#
4e[
8e]
8a#[
=182
4a#]
4r
4r
8f#
8e
=183
8d
8c#
8B
8a#
8b
8cc#
8dd
8ff#
=184
8dd
4.dd
8cc#
8b
8a
8g#
=185
8f#
4e
8ff#
8ee
8dd
8cc#
8b
=186
8a
8g#
8r
24aa
24gg#
24aa
24gg#
24aa
24gg#
24aa
24gg#
24aa
24gg#
24aa
24gg#
24aa
24gg#
24aa
=187
24gg#
24aa
24gg#
24aa
24gg#
24aa
24gg#
24aa
24gg#
24aa
24gg#
24aa
24gg#
24aa
24gg#
24aa
24gg#
24aa
24gg#
24aa
24gg#
24aa
24gg#
24aa
=188
24gg#
24ff#
24gg#
8r
4aa
4aa
4ee
=189
4ff#
4ff#
4ff#
4dd[
=190
4dd]
4r
4e
4r
=191
2r
4e
4r
=192
2r
4r
4ee[
=193
4ee]
2a
4dd[
=194
4dd]
4r
2r
=195
4.aa[
16aa]
16gg#
16ff#
16ee
16dd#
16ee
16ff#
16ee
16dd
16cc#
=196
16b
16a
8g#
4r
2r
=197
4.a[
16a]
16g#
16f#
16e
16d#
16e
16f#
16e
16d
16c#
=198
16B
16A
8G#
4r
8.dd
16cc#
16b
16a
16g#
16f#
=199
16e
16d
16c#
16d
16e
16f#
16g#
16a
16b
16cc#
16dd
16ee
16ff#
16gg#
16aa
16bb
=200
16ccc#
16ddd
8eee
8r
8eee#
8r
8fff#
8r
8aaa
=201
2r
2dd
=202
16r
16e
4.aa
2r
=203
2ee#
4ee#
4cc
=204
4dd
4dd
4dd
4a#[
=205
4a#]
4r
4e
4r
=206
2r
8r
8aa#
8r
8ee
=207
4r
8r
8cc
4ccc
4ccc
=208
2ccc
4ccc
4aa[
=209
16aa]
16ee#
4.cc
2r
=210
1a[
=211
8a]
4.a#
2aa#
=212
2aa#
4aa#
4gg[
=213
16gg]
8.ee
4a#[
8a#]
4.a
=214
1g[
=215
8g]
4.e#
2aa
=216
2aa
4aa
4ee#[
=217
16ee#]
16dd
8a
4r
2r
=218
1dd#[
=219
8dd#]
4.dd
2dd
=220
2dd
4dd
4a#[
=221
16a#]
16g
8d
4r
2r
=222
1d[
=223
2d]
2r
=224
2dd
4dd
4a#[
=225
16a#]
16g
8e#
4r
2dd
=226
2dd[
16dd]
16cc#
8dd
8r
8dd
=227
8r
8cc
8cc
8ee
8dd
8cc
8b
8a
=228
8g#
8a
8c#
8e
8d
8c#
8B
8A
=229
8G#
8A
8e
8c#
8a
8e
8cc#
8a
=230
8ee
8cc#
8aa
8ee
8cc#
8a
8ee
8cc#
=231
8a
8dd
8ee#
8aa
8gg
8ee#
8ee
8dd
=232
8cc#
8dd
8e#
8a
8g
8e#
8e
8d
=233
8c#
8d
8a
8e#
8dd
8a
8ee#
8dd
=234
8aa
8aa
8aa
8ff#
8dd#
8a
8a
8f#
=235
8d#
8e
8g
8b
8a
8g
8f#
8e
=236
8d#
8e
8ee
8gg
8ff#
8ee
8dd#
8ee
=237
8ff#
8gg
8gg
8bb
8aa
8gg
8ff#
8gg
=238
8aa
8aa#
8bb
8aa
8gg
8ff#
8ee
8dd
=239
1f#
=240
16a
16dd
8ff#
4r
16dd
16ff#
8aa
4r
=241
16aa
16ff#
8dd
4r
2r
=242
16ff#
16dd
8a
4r
16dd
16a
8f#
4r
=243
16a
16f#
8d
8r
8a
4aa
4aa
=244
2aa
4aa
4ff#[
=245
16ff#]
16dd
8cc#
8r
8a
4gg
4gg
=246
2gg
4gg
4ee[
=247
16ee]
16cc#
8dd
4r
2dd[
=248
2dd]
2dd
=249
2.dd[
8dd]
8cc#
=250
8b
8b
8a
8g
8f#
8f#
8e
8d
=251
8c#
8d
8f#
8a
8g
8f#
8e
8d
=252
8c#
8d
8e
8f#
8g
8a
8b
8cc#
=253
8dd
8a
8cc#
8ee
8dd
8cc#
8b
8a
=254
8g#
8a
8b
8cc#
8dd
8ee
8ff#
8gg
=255
8ee
8dd#
8ff#
8aa
8gg
8ff#
8ee
8dd#
=256
8cc#
8b
8cc#
8dd#
8ee
8ff#
8gg
8aa
=257
8ff#
8ee
8ff#
8gg
8aa
8bb
8ccc#
8ddd
=258
4ddd#
2eee
8ddd
8ccc#
=259
4bb
2aa
16gg#
16ff#
16ee
16dd
=260
16cc#
16b
8a
16g#
16f#
16e
16d
16c#
16B
8A
8r
8A
=261
1G#
=262
4g
2.g[
=263
8g]
8a
8r
8aa[
4aa]
16gg#
16ff#
16ee
16dd
=264
16cc#
16b
8a
16g#
16f#
16e
16d
16c#
16B
8A
8r
8g
=265
8r
8e#
8d
8e#
8d
8e#
8d
8e#
=266
8d
8e#
8d
8e#
8d
8e#
8d
8c#
=267
8d
16c#
16A
16B
16c#
16d
16e
16f#
16g#
8a
16b
16cc#
16dd
16ee
=268
16ff#
16gg#
8aa
4r
2r
=269
1r
=270
1r
=271
1r
=272
1r
=273
8b
4.bb
8gg
8bb
8aa
8gg
=274
8ff#
8aa
8gg
8ff#
8ee
8gg
8ff#
8ee
=275
8dd
8ff#
8ee
8dd
8cc#
8b
8a
8b
=276
4cc#
4ee[
8ee]
4.dd
=277
2r
8dd
8b
4cc#[
=278
8cc#]
8a#
4r
8b
8g#
4a[
=279
8a]
8f#
4r
4.g
8d#
=280
8r
8e
8r
8B
8r
8e
8r
16b
16ee
=281
8gg
4.bb
8gg
8bb
32aa
16.gg
24ff#
24r
24ee#
=282
8ff#
8aa
32gg
16.ff#
24ee
24r
24dd#
8ee
8gg
32ff#
16.ee
24dd
24r
24cc#
=283
8dd
8ff#
32ee
16.dd
24cc#
24r
24b
8a
24g
24r
24b
32r
16.a
24g
24r
24f#
=284
4e
4d
2r
=285
2r
2dd[
=286
16dd]
8.dd
2.ddd
=287
4ddd[
16ddd]
64eee
64ddd
64ccc#
64ddd
8eee
8ddd
8ddd
8ccc
8bb
=288
4ccc
4aa#[
8aa#]
4.bb
=289
2r
2a[
=290
16a]
8.a
2aa[
8aa]
16aa
16gg
=291
16ff#
16ee
8ff#
4r
2r
=292
16r
8.a
2aa[
8aa]
16aa
16gg
=293
16ee#
16dd##
8ee#
4r
2r
=294
16r
8.e#
2ee#[
8ee#]
16ee#
16dd#
=295
16dd
16cc
8dd
4r
2r
=296
16r
8.e#
2ee#[
8ee#]
16ee#
16dd#
=297
16dd
16cc
8dd
4r
4r
4d[
=298
8d]
8g
4r
4r
4g[
=299
8g]
8c
4r
4r
8r
8e#[
=300
4e#]
8r
8d#
8r
8d
8r
8c
=301
8r
8d
8ee#
16dd#
16dd
4dd
8cc
8a#[
=302
4a#]
8aa#
16aa
16gg
4gg
8ee#
8ee[
=303
4ee]
8gg
16ee#
16ee
4ee
8dd
8cc#[
=304
4cc#]
4r
2r
=305
4r
8G
8c#
8e
4.g
=306
4r
8G
16c
16f#
4a[
4a]
=307
2r
4r
8b
8a
=308
8g
8f#
8e
8a
8g
8f#
8g
8b
=309
8g
4.g
8f#
8e
8d
8c#
=310
4B
8A
8bb
8aa
8gg
8ff#
8ee
=311
4dd
8cc#
24ddd
24ccc#
24ddd
24ccc#
24ddd
24ccc#
24ddd
24ccc#
24ddd
24ccc#
24ddd
24ccc#
24ddd
24ccc#
24ddd
=312
24ccc#
24ddd
24ccc#
24ddd
24ccc#
24ddd
24ccc#
24ddd
24ccc#
24ddd
24ccc#
24ddd
24ccc#
24ddd
24ccc#
24ddd
24ccc#
24ddd
24ccc#
24ddd
24ccc#
24ddd
24ccc#
24ddd
=313
24ccc#
24bb
24ccc#
8r
4ddd
4ddd
4aa
=314
4bb
4bb
4bb
4gg
=315
2r
16r
16e
8ee
8r
8a
=316
2r
4a
4r
=317
4r
2cc#
16r
16dd
8aa[
=318
4aa]
2dd
4ccc#[
=319
4ccc#]
4r
2r
=320
4.ddd[
16ddd]
16ccc#
16bb
16aa
16gg#
16aa
16bb
16aa
16gg
16ff#
=321
16ee
8.dd
4cc#
2r
=322
4.dd[
16dd]
16cc#
16b
16a
16g#
16a
16b
16a
16g
16f#
=323
16e
8.d
4c#
8.gg
16ff#
16ee
16dd
16cc#
16b
=324
16a
16g
16f#
16g
16a
16b
16cc#
16dd
16ee
16ff#
8gg
8r
8gg#
=325
8r
8aa
8r
8aa#
8r
8bb
8r
8ddd
=326
2a
2ee
=327
2ff#
2r
=328
1r
==
*-
